src/flags/country-flag/1F1FA-1F1EC.svg

<svg id="emoji" viewBox="0 0 72 72" xmlns="http://www.w3.org/2000/svg">
  <g id="grid">
    <path fill="#b3b3b3" d="M68,4V68H4V4H68m4-4H0V72H72V0Z"/>
    <path fill="none" stroke="#00a5ff" stroke-miterlimit="10" stroke-width="0.1" d="M12.923,10.9583H59.0769A1.9231,1.9231,0,0,1,61,12.8814V59.0352a1.9231,1.9231,0,0,1-1.9231,1.9231H12.9231A1.9231,1.9231,0,0,1,11,59.0352V12.8813A1.923,1.923,0,0,1,12.923,10.9583Z"/>
    <rect x="16" y="4" rx="2.2537" ry="2.2537" width="40" height="64" fill="none" stroke="#00a5ff" stroke-miterlimit="10" stroke-width="0.1"/>
    <rect x="16" y="4" rx="2.2537" ry="2.2537" width="40" height="64" transform="translate(72) rotate(90)" fill="none" stroke="#00a5ff" stroke-miterlimit="10" stroke-width="0.1"/>
    <circle cx="36" cy="36" r="29" fill="none" stroke="#00a5ff" stroke-miterlimit="10" stroke-width="0.1"/>
  </g>
  <g id="color">
    <rect x="5" y="17" width="62" height="38"/>
    <rect x="5" y="42" width="62" height="6" fill="#f1b31c"/>
    <rect x="5" y="30" width="62" height="6" fill="#d22f27"/>
    <rect x="5" y="48" width="62" height="7" fill="#d22f27"/>
    <rect x="5" y="24" width="62" height="6" fill="#f1b31c"/>
    <circle cx="36" cy="36" r="6" fill="#fff"/>
    <circle cx="35.215" cy="32.6639" r="0.9933" stroke="#000" stroke-miterlimit="10" stroke-width="1.3347"/>
    <circle cx="36.7049" cy="36.1404" r="0.9933" stroke="#000" stroke-miterlimit="10" stroke-width="1.6683"/>
    <line x1="32.7318" x2="35.7116" y1="33.1606" y2="33.1606" stroke="#000" stroke-linecap="round" stroke-linejoin="round" stroke-width="1.001"/>
    <line x1="35.7116" x2="35.7116" y1="36.1404" y2="33.1606" stroke="#000" stroke-linecap="round" stroke-linejoin="round" stroke-width="1.6683"/>
    <line x1="36.7049" x2="36.7049" y1="40.1135" y2="37.1337" stroke="#000" stroke-linecap="round" stroke-linejoin="round" stroke-width="1.001"/>
    <path stroke="#000000" stroke-linecap="round" stroke-linejoin="round" stroke-width="0.3337" d="M38.5822,34.9626c-1.2029-.676-2.5481-.5659-3.0044.246l4.3563,2.4483C40.39,36.8451,39.7851,35.6387,38.5822,34.9626Z"/>
  </g>
  <g id="line">
    <rect x="5" y="17" width="62" height="38" fill="none" stroke="#000" stroke-linecap="round" stroke-linejoin="round" stroke-width="2"/>
  </g>
</svg>

<svg viewBox="0 0 72 72" xmlns="http://www.w3.org/2000/svg"><path fill="#b3b3b3" d="M68 4v64H4V4h64m4-4H0v72h72V0z"/><path fill="none" stroke="#00a5ff" stroke-miterlimit="10" stroke-width=".1" d="M12.923 10.958h46.154A1.923 1.923 0 0161 12.881v46.154a1.923 1.923 0 01-1.923 1.923H12.923A1.923 1.923 0 0111 59.035V12.881a1.923 1.923 0 011.923-1.923z"/><rect x="16" y="4" rx="2.254" ry="2.254" width="40" height="64" fill="none" stroke="#00a5ff" stroke-miterlimit="10" stroke-width=".1"/><rect x="16" y="4" rx="2.254" ry="2.254" width="40" height="64" transform="rotate(90 36 36)" fill="none" stroke="#00a5ff" stroke-miterlimit="10" stroke-width=".1"/><circle cx="36" cy="36" r="29" fill="none" stroke="#00a5ff" stroke-miterlimit="10" stroke-width=".1"/><path d="M5 17h62v38H5z" stroke-linecap="round" stroke-miterlimit="10" stroke-width="6" stroke="#fff" fill="none" stroke-linejoin="round"/><path d="M5 17h62v38H5z"/><path fill="#f1b31c" d="M5 42h62v6H5z"/><path fill="#d22f27" d="M5 30h62v6H5zm0 18h62v7H5z"/><path fill="#f1b31c" d="M5 24h62v6H5z"/><circle cx="36" cy="36" r="6" fill="#fff"/><circle cx="35.215" cy="32.664" r=".993" stroke="#000" stroke-miterlimit="10" stroke-width="1.335"/><circle cx="36.705" cy="36.14" r=".993" stroke="#000" stroke-miterlimit="10" stroke-width="1.668"/><path stroke="#000" stroke-linecap="round" stroke-linejoin="round" stroke-width="1.001" d="M32.732 33.161h2.98"/><path stroke="#000" stroke-linecap="round" stroke-linejoin="round" stroke-width="1.668" d="M35.712 36.14v-2.979"/><path stroke="#000" stroke-linecap="round" stroke-linejoin="round" stroke-width="1.001" d="M36.705 40.114v-2.98"/><path stroke="#000" stroke-linecap="round" stroke-linejoin="round" stroke-width=".334" d="M38.582 34.963c-1.203-.676-2.548-.566-3.004.246l4.356 2.448c.456-.812-.149-2.018-1.352-2.694z"/><g><path fill="none" stroke="#000" stroke-linecap="round" stroke-linejoin="round" stroke-width="2" d="M5 17h62v38H5z"/></g></svg>
